public/sheesh/icons11.svg

<svg fill="none" height="40" viewBox="0 0 40 40" width="40" xmlns="http://www.w3.org/2000/svg" xmlns:xlink="http://www.w3.org/1999/xlink"><linearGradient id="a"><stop offset="0" stop-color="#34c796"/><stop offset="1" stop-color="#0b7a55"/></linearGradient><linearGradient id="b" gradientUnits="userSpaceOnUse" x1="20" x2="20" xlink:href="#a" y1="0" y2="40"/><linearGradient id="c" gradientUnits="userSpaceOnUse" x1="19.9823" x2="19.9823" xlink:href="#a" y1="11.1113" y2="28.889"/><circle cx="20" cy="20" fill="#151722" r="19" stroke="url(#b)" stroke-width="2"/><path clip-rule="evenodd" d="m13.111 15.3335c0-2.3288 1.8933-4.2222 4.2222-4.2222s4.2222 1.8934 4.2222 4.2222c-.0088 2.2845-1.7955 4.1334-4.0711 4.2134h-.0177-.0445c-.0533-.0089-.1244-.0089-.1955 0-2.3289-.08-4.1156-1.9289-4.1156-4.2134zm-.2847 6.5777c2.4978-1.6533 6.5422-1.6533 9.0222 0 1.12.7467 1.7334 1.76 1.7423 2.8534 0 1.1022-.6223 2.1155-1.7423 2.8711-1.2444.8355-2.88 1.2533-4.5155 1.2533-1.6356 0-3.2711-.4178-4.5156-1.2533-1.12-.7467-1.7422-1.76-1.7422-2.8534 0-1.0933.6222-2.1155 1.7511-2.8711zm14.2757-6.0531c.1422 1.7244-1.0845 3.2355-2.7822 3.44h-.0178-.0267c-.0533 0-.1066 0-.1511.0178-.8622.0444-1.6533-.2312-2.2489-.7378.9156-.8178 1.44-2.0445 1.3334-3.3778-.0623-.72-.3112-1.3778-.6845-1.9378.3378-.1689.7289-.2755 1.1289-.3111 1.7422-.1511 3.2978 1.1467 3.4489 2.9067zm.231 10.338c.9244-.5066 1.4756-1.2533 1.5467-2.1155.08-.8534-.3378-1.68-1.1556-2.3378-1.52-1.2267-3.9911-1.6089-5.9555-1.04.7555.2755 1.4488.6489 2.0444 1.12 1.0489.8444 1.5733 1.9022 1.4844 3.0044-.0711.7645-.4444 1.4845-1.0844 2.0623 1.1111.0266 2.2311-.2045 3.12-.6934z" fill="url(#c)" fill-rule="evenodd"/></svg>

<svg width="40" height="40" viewBox="0 0 40 40" fill="none" xmlns="http://www.w3.org/2000/svg">
<circle cx="20" cy="20" r="19" fill="#151722" stroke="url(#paint0_linear_342_13827)" stroke-width="2"/>
<path fill-rule="evenodd" clip-rule="evenodd" d="M13.111 15.3335C13.111 13.0047 15.0043 11.1113 17.3332 11.1113C19.6621 11.1113 21.5554 13.0047 21.5554 15.3335C21.5466 17.618 19.7599 19.4669 17.4843 19.5469H17.4666H17.4221C17.3688 19.538 17.2977 19.538 17.2266 19.5469C14.8977 19.4669 13.111 17.618 13.111 15.3335ZM12.8263 21.9112C15.3241 20.2579 19.3685 20.2579 21.8485 21.9112C22.9685 22.6579 23.5819 23.6712 23.5908 24.7646C23.5908 25.8668 22.9685 26.8801 21.8485 27.6357C20.6041 28.4712 18.9685 28.889 17.333 28.889C15.6974 28.889 14.0619 28.4712 12.8174 27.6357C11.6974 26.889 11.0752 25.8757 11.0752 24.7823C11.0752 23.689 11.6974 22.6668 12.8263 21.9112ZM27.102 15.8581C27.2442 17.5825 26.0175 19.0936 24.3198 19.2981H24.302H24.2753C24.222 19.2981 24.1687 19.2981 24.1242 19.3159C23.262 19.3603 22.4709 19.0847 21.8753 18.5781C22.7909 17.7603 23.3153 16.5336 23.2087 15.2003C23.1464 14.4803 22.8975 13.8225 22.5242 13.2625C22.862 13.0936 23.2531 12.987 23.6531 12.9514C25.3953 12.8003 26.9509 14.0981 27.102 15.8581ZM27.333 26.1961C28.2574 25.6895 28.8086 24.9428 28.8797 24.0806C28.9597 23.2272 28.5419 22.4006 27.7241 21.7428C26.2041 20.5161 23.733 20.1339 21.7686 20.7028C22.5241 20.9783 23.2174 21.3517 23.813 21.8228C24.8619 22.6672 25.3863 23.725 25.2974 24.8272C25.2263 25.5917 24.853 26.3117 24.213 26.8895C25.3241 26.9161 26.4441 26.685 27.333 26.1961Z" fill="url(#paint1_linear_342_13827)"/>
<defs>
<linearGradient id="paint0_linear_342_13827" x1="20" y1="0" x2="20" y2="40" gradientUnits="userSpaceOnUse">
<stop stop-color="#34C796"/>
<stop offset="1" stop-color="#0B7A55"/>
</linearGradient>
<linearGradient id="paint1_linear_342_13827" x1="19.9823" y1="11.1113" x2="19.9823" y2="28.889" gradientUnits="userSpaceOnUse">
<stop stop-color="#34C796"/>
<stop offset="1" stop-color="#0B7A55"/>
</linearGradient>
</defs>
</svg>
